scalable/apps/btop.svg

<?xml version="1.0" encoding="UTF-8" standalone="no"?>
<!-- Created with Inkscape (http://www.inkscape.org/) -->

<svg
   width="128"
   height="128"
   viewBox="0 0 128 128"
   version="1.1"
   id="svg5"
   inkscape:version="1.4 (e7c3feb100, 2024-10-09)"
   sodipodi:docname="btop.svg"
   xml:space="preserve"
   xmlns:inkscape="http://www.inkscape.org/namespaces/inkscape"
   xmlns:sodipodi="http://sodipodi.sourceforge.net/DTD/sodipodi-0.dtd"
   xmlns:xlink="http://www.w3.org/1999/xlink"
   xmlns="http://www.w3.org/2000/svg"
   xmlns:svg="http://www.w3.org/2000/svg"><sodipodi:namedview
     id="namedview7"
     pagecolor="#ffffff"
     bordercolor="#666666"
     borderopacity="1"
     inkscape:pageshadow="2"
     inkscape:pageopacity="0.0"
     inkscape:pagecheckerboard="true"
     inkscape:document-units="px"
     showgrid="false"
     inkscape:showpageshadow="false"
     showborder="true"
     inkscape:snap-page="true"
     inkscape:zoom="6.5255259"
     inkscape:cx="27.890473"
     inkscape:cy="90.567414"
     inkscape:window-width="1920"
     inkscape:window-height="1043"
     inkscape:window-x="0"
     inkscape:window-y="0"
     inkscape:window-maximized="1"
     inkscape:current-layer="layer2"
     inkscape:deskcolor="#d1d1d1" /><defs
     id="defs2"><linearGradient
       id="linearGradient21"
       inkscape:collect="always"><stop
         style="stop-color:#000000;stop-opacity:0.0977908;"
         offset="0"
         id="stop21" /><stop
         style="stop-color:#000000;stop-opacity:0.30354801;"
         offset="0.5"
         id="stop23" /><stop
         style="stop-color:#000000;stop-opacity:0.09632333;"
         offset="1"
         id="stop22" /></linearGradient><linearGradient
       id="linearGradient1"
       inkscape:collect="always"><stop
         style="stop-color:#696969;stop-opacity:1;"
         offset="0"
         id="stop1" /><stop
         style="stop-color:#2a2a2a;stop-opacity:1;"
         offset="1"
         id="stop2" /></linearGradient><linearGradient
       inkscape:collect="always"
       id="linearGradient404"><stop
         style="stop-color:#e6e6e6;stop-opacity:1"
         offset="0"
         id="stop400" /><stop
         style="stop-color:#ffffff;stop-opacity:1"
         offset="1"
         id="stop402" /></linearGradient><linearGradient
       y2="236"
       x2="96"
       y1="236"
       x1="32"
       gradientTransform="translate(604.81684,170.58641)"
       gradientUnits="userSpaceOnUse"
       id="linearGradient1099"
       xlink:href="#linearGradient1036" /><linearGradient
       id="linearGradient1036"><stop
         id="stop1032"
         offset="0"
         style="stop-color:#d5d3cf;stop-opacity:1;" /><stop
         id="stop1034"
         offset="1"
         style="stop-color:#f6f5f4;stop-opacity:1" /></linearGradient><radialGradient
       r="32"
       fy="-76"
       fx="-244"
       cy="-76"
       cx="-244"
       gradientTransform="matrix(0.88333331,0,0,0.88333331,-460.35018,463.11973)"
       gradientUnits="userSpaceOnUse"
       id="radialGradient1103"
       xlink:href="#linearGradient1069" /><linearGradient
       id="linearGradient1069"><stop
         id="stop1065"
         offset="0"
         style="stop-color:#d5d3cf;stop-opacity:1" /><stop
         id="stop1067-1"
         offset="1"
         style="stop-color:#949390;stop-opacity:1" /></linearGradient><linearGradient
       gradientUnits="userSpaceOnUse"
       y2="232"
       x2="64"
       y1="262.5"
       x1="64"
       id="linearGradient1027"
       xlink:href="#linearGradient1025"
       gradientTransform="translate(-470.5864,432.81685)" /><linearGradient
       id="linearGradient1025"><stop
         id="stop1021"
         offset="0"
         style="stop-color:#9a9996;stop-opacity:1" /><stop
         id="stop1023"
         offset="1"
         style="stop-color:#77767b;stop-opacity:1" /></linearGradient><inkscape:path-effect
       effect="spiro"
       id="path-effect35304-9"
       is_visible="true" /><clipPath
       clipPathUnits="userSpaceOnUse"
       id="clipPath1609-7"><path
         sodipodi:nodetypes="cccccc"
         inkscape:connector-curvature="0"
         id="path1611-5"
         d="m 252,116 28,-28 v -8 h -36 v 36 z"
         style="fill:#e74747;stroke:none;stroke-width:0.25px;stroke-linecap:butt;stroke-linejoin:miter;stroke-opacity:1" /></clipPath><linearGradient
       inkscape:collect="always"
       id="linearGradient8241"><stop
         style="stop-color:#999999;stop-opacity:1"
         offset="0"
         id="stop8237" /><stop
         style="stop-color:#b3b3b3;stop-opacity:1"
         offset="0.05"
         id="stop9349" /><stop
         style="stop-color:#999999;stop-opacity:1"
         offset="0.1"
         id="stop21746" /><stop
         style="stop-color:#999999;stop-opacity:1"
         offset="0.89999998"
         id="stop21940" /><stop
         style="stop-color:#b3b3b3;stop-opacity:1"
         offset="0.94999999"
         id="stop9351" /><stop
         style="stop-color:#999999;stop-opacity:1"
         offset="1"
         id="stop8239" /></linearGradient><radialGradient
       r="32"
       fy="-76"
       fx="-244"
       cy="-76"
       cx="-244"
       gradientTransform="matrix(0.88333331,0,0,0.88333331,-460.35018,463.11973)"
       gradientUnits="userSpaceOnUse"
       id="radialGradient1103-5"
       xlink:href="#linearGradient1069" /><inkscape:path-effect
       effect="spiro"
       id="path-effect35304-9-2"
       is_visible="true" /><clipPath
       clipPathUnits="userSpaceOnUse"
       id="clipPath1609-7-7"><path
         sodipodi:nodetypes="cccccc"
         inkscape:connector-curvature="0"
         id="path1611-5-0"
         d="m 252,116 28,-28 v -8 h -36 v 36 z"
         style="fill:#e74747;stroke:none;stroke-width:0.25px;stroke-linecap:butt;stroke-linejoin:miter;stroke-opacity:1" /></clipPath><clipPath
       clipPathUnits="userSpaceOnUse"
       id="clipPath744"><rect
         style="fill:#1e88e5;fill-opacity:1;stroke-width:0.264583"
         id="rect746"
         width="541.86664"
         height="541.86664"
         x="0"
         y="1.5987212e-14"
         rx="79.375"
         ry="79.375" /></clipPath><clipPath
       clipPathUnits="userSpaceOnUse"
       id="clipPath62"><rect
         style="fill:#1e88e5;fill-opacity:1;stroke-width:0.264583"
         id="rect64"
         width="541.86664"
         height="541.86664"
         x="2.2507105e-05"
         y="-0.42205024"
         rx="79.375"
         ry="79.375" /></clipPath><linearGradient
       inkscape:collect="always"
       xlink:href="#linearGradient8241"
       id="linearGradient8243"
       x1="11.5"
       y1="120.5"
       x2="116.5"
       y2="120.5"
       gradientUnits="userSpaceOnUse" /><radialGradient
       r="32"
       fy="-76"
       fx="-244"
       cy="-76"
       cx="-244"
       gradientTransform="matrix(0.88333331,0,0,0.88333331,-460.35018,463.11973)"
       gradientUnits="userSpaceOnUse"
       id="radialGradient1103-6"
       xlink:href="#linearGradient1069" /><inkscape:path-effect
       effect="spiro"
       id="path-effect35304-9-20"
       is_visible="true" /><clipPath
       clipPathUnits="userSpaceOnUse"
       id="clipPath1609-7-2"><path
         sodipodi:nodetypes="cccccc"
         inkscape:connector-curvature="0"
         id="path1611-5-3"
         d="m 252,116 28,-28 v -8 h -36 v 36 z"
         style="fill:#e74747;stroke:none;stroke-width:0.25px;stroke-linecap:butt;stroke-linejoin:miter;stroke-opacity:1" /></clipPath><radialGradient
       r="32"
       fy="-76"
       fx="-244"
       cy="-76"
       cx="-244"
       gradientTransform="matrix(0.88333331,0,0,0.88333331,-460.35018,463.11973)"
       gradientUnits="userSpaceOnUse"
       id="radialGradient1103-56"
       xlink:href="#linearGradient1069" /><inkscape:path-effect
       effect="spiro"
       id="path-effect35304-9-7"
       is_visible="true" /><clipPath
       clipPathUnits="userSpaceOnUse"
       id="clipPath1609-7-0"><path
         sodipodi:nodetypes="cccccc"
         inkscape:connector-curvature="0"
         id="path1611-5-9"
         d="m 252,116 28,-28 v -8 h -36 v 36 z"
         style="fill:#e74747;stroke:none;stroke-width:0.25px;stroke-linecap:butt;stroke-linejoin:miter;stroke-opacity:1" /></clipPath><clipPath
       clipPathUnits="userSpaceOnUse"
       id="clipPath37"><rect
         style="fill:#1a1a1a;fill-opacity:1;stroke-width:0.264583"
         id="rect39"
         width="541.86664"
         height="541.86664"
         x="-2.6626146e-06"
         y="3.2408705"
         rx="79.375"
         ry="79.375" /></clipPath><clipPath
       clipPathUnits="userSpaceOnUse"
       id="clipPath22042"><rect
         style="fill:#333333;fill-opacity:1;stroke-width:0.0133797"
         id="rect22044"
         width="27.31955"
         height="27.483929"
         x="166.96844"
         y="105.40438"
         rx="4.0018873"
         ry="4.0259666" /></clipPath><clipPath
       clipPathUnits="userSpaceOnUse"
       id="clipPath1039"><rect
         style="fill:#b3b3b3;fill-opacity:1;stroke-width:0.264583"
         id="rect1041"
         width="541.8667"
         height="541.86682"
         x="2.5931527e-05"
         y="-0.00010962487"
         rx="79.375008"
         ry="79.375031" /></clipPath><clipPath
       clipPathUnits="userSpaceOnUse"
       id="clipPath154"><rect
         style="fill:#b3b3b3;fill-opacity:1;stroke-width:0.264583"
         id="rect156"
         width="541.8667"
         height="541.86682"
         x="-2.9218751e-05"
         y="-0.00016368683"
         rx="79.375008"
         ry="79.375031" /></clipPath><linearGradient
       inkscape:collect="always"
       xlink:href="#linearGradient404"
       id="linearGradient406"
       x1="64"
       y1="112.5"
       x2="64"
       y2="7.5"
       gradientUnits="userSpaceOnUse" /><linearGradient
       id="paint0_linear"
       x1="49.9392"
       y1="0.257812"
       x2="49.9392"
       y2="99.7423"
       gradientUnits="userSpaceOnUse"
       gradientTransform="matrix(0.76242929,0,0,0.76242929,26.69079,21.878509)"><stop
         stop-color="white"
         id="stop585" /><stop
         offset="1"
         stop-color="white"
         stop-opacity="0"
         id="stop587" /></linearGradient><pattern
       xlink:href="#gray-stripes"
       id="pattern1888"
       patternTransform="translate(44.77106,23.953698)"
       x="0"
       y="0"
       preserveAspectRatio="none" /><pattern
       xlink:href="#red-stripes"
       id="pattern1870"
       patternTransform="matrix(0.8314398,0,0,0.8314398,44.77106,23.953698)" /><pattern
       id="red-stripes"
       width="341"
       height="90"
       patternUnits="userSpaceOnUse"><rect
         width="341"
         height="16"
         fill="#f00"
         id="rect2" /><rect
         y="16"
         width="341"
         height="16"
         fill="#d70000"
         id="rect4" /><rect
         y="32"
         width="341"
         height="16"
         fill="#af0000"
         id="rect6" /><rect
         y="48"
         width="341"
         height="16"
         fill="#870000"
         id="rect8" /><rect
         y="64"
         width="341"
         height="16"
         fill="#5f0000"
         id="rect10" /></pattern><pattern
       id="gray-stripes"
       width="341"
       height="90"
       patternUnits="userSpaceOnUse"
       inkscape:label="gray-stripes"><rect
         width="341"
         height="16"
         fill="#585858"
         id="rect13" /><rect
         y="16"
         width="341"
         height="16"
         fill="#4e4e4e"
         id="rect15" /><rect
         y="32"
         width="341"
         height="16"
         fill="#444"
         id="rect17" /><rect
         y="48"
         width="341"
         height="16"
         fill="#3a3a3a"
         id="rect19" /><rect
         y="64"
         width="341"
         height="16"
         fill="#303030"
         id="rect21" /><rect
         y="80"
         width="341"
         height="10"
         fill="#262626"
         id="rect23" /></pattern><radialGradient
       inkscape:collect="always"
       xlink:href="#linearGradient1"
       id="radialGradient2"
       cx="64"
       cy="60"
       fx="64"
       fy="60"
       r="50.377666"
       gradientUnits="userSpaceOnUse"
       gradientTransform="matrix(1.0790899,0,0,1.4988734,-5.0617553,-29.932405)" /><linearGradient
       inkscape:collect="always"
       xlink:href="#linearGradient21"
       id="linearGradient22"
       x1="-126.37766"
       y1="41.108378"
       x2="-25.62233"
       y2="41.108378"
       gradientUnits="userSpaceOnUse"
       gradientTransform="translate(140)" /></defs><g
     inkscape:groupmode="layer"
     id="layer2"
     inkscape:label="Layer 1"><rect
       style="fill:url(#linearGradient8243);fill-opacity:1"
       id="rect440"
       width="105"
       height="105"
       x="11.5"
       y="15.5"
       rx="13"
       ry="13" /><rect
       style="fill:url(#linearGradient406);fill-opacity:1"
       id="rect358"
       width="105"
       height="105"
       x="11.5"
       y="7.5"
       rx="13"
       ry="13" /><rect
       style="fill:url(#radialGradient2);fill-opacity:1;stroke-width:0.959575"
       id="rect338"
       width="100.75533"
       height="100.75533"
       x="13.622333"
       y="9.6223326"
       rx="12"
       ry="12" /><path
       id="rect3"
       style="fill:url(#linearGradient22);fill-opacity:1;stroke-width:2.06468"
       d="M 25.623047 9.6230469 C 18.975047 9.6230469 13.623047 14.975047 13.623047 21.623047 L 13.623047 22.216797 L 114.37695 22.216797 L 114.37695 21.623047 C 114.37695 14.975047 109.02495 9.6230469 102.37695 9.6230469 L 25.623047 9.6230469 z M 13.623047 34.810547 L 13.623047 47.40625 L 114.37695 47.40625 L 114.37695 34.810547 L 13.623047 34.810547 z M 13.623047 60 L 13.623047 72.59375 L 114.37695 72.59375 L 114.37695 60 L 13.623047 60 z M 13.623047 85.189453 L 13.623047 97.783203 L 114.37695 97.783203 L 114.37695 85.189453 L 13.623047 85.189453 z " /><path
       d="M 49.79807,34.811171 V 97.783256 H 82.85842 V 85.188838 h 5.51006 V 72.594422 H 82.85842 V 60.000006 h 5.51006 V 47.405589 H 82.85842 V 34.811171 Z M 60.81819,47.405589 H 77.34836 V 60.000006 H 60.81819 Z m 0,25.188833 H 77.34836 V 85.188838 H 60.81819 Z"
       id="path2"
       style="fill:#252525;fill-opacity:1;stroke-width:0.787152" /><rect
       style="fill:#f52b2b;fill-opacity:0;stroke-width:2.06468"
       id="rect1"
       width="100.75534"
       height="12.594419"
       x="13.62233"
       y="22.216749" /><rect
       style="fill:#f52b2b;fill-opacity:0;stroke-width:2.06468"
       id="rect5"
       width="100.75534"
       height="12.594419"
       x="13.62233"
       y="47.405582" /><rect
       style="fill:#f52b2b;fill-opacity:0;stroke-width:2.06468"
       id="rect9"
       width="100.75533"
       height="12.594419"
       x="13.62233"
       y="72.594414" /><path
       id="rect12"
       style="fill:#f52b2b;fill-opacity:0;stroke-width:2.06468"
       d="m 13.62305,97.783203 v 0.59375 c 0,6.647997 5.352,11.999997 12,11.999997 h 76.7539 c 6.648,0 12,-5.352 12,-11.999997 v -0.59375 z" /><path
       d="M 46.01115,27.237311 V 90.209396 H 79.07149 V 77.614978 h 5.51006 V 65.020563 H 79.07149 V 52.426146 h 5.51006 V 39.831728 H 79.07149 V 27.237311 Z M 57.03126,39.831728 H 73.56143 V 52.426146 H 57.03126 Z m 0,25.188835 H 73.56143 V 77.614978 H 57.03126 Z"
       id="path56"
       style="fill:#e96262;fill-opacity:1;stroke-width:0.787152" /><path
       id="path19"
       style="fill:#fcbcbc;fill-opacity:1;stroke-width:0.787152"
       d="M 46.011719 27.238281 L 46.011719 29.238281 L 79.072266 29.238281 L 79.072266 27.238281 L 46.011719 27.238281 z M 79.072266 39.832031 L 79.072266 41.832031 L 84.582031 41.832031 L 84.582031 39.832031 L 79.072266 39.832031 z M 57.03125 52.425781 L 57.03125 54.425781 L 73.560547 54.425781 L 73.560547 52.425781 L 57.03125 52.425781 z M 79.072266 65.021484 L 79.072266 67.021484 L 84.582031 67.021484 L 84.582031 65.021484 L 79.072266 65.021484 z M 57.03125 77.615234 L 57.03125 79.615234 L 73.560547 79.615234 L 73.560547 77.615234 L 57.03125 77.615234 z " /><path
       id="path20"
       style="fill:#952121;fill-opacity:1;stroke-width:0.787152"
       d="M 57.03125 37.832031 L 57.03125 39.832031 L 73.560547 39.832031 L 73.560547 37.832031 L 57.03125 37.832031 z M 79.072266 50.425781 L 79.072266 52.425781 L 84.582031 52.425781 L 84.582031 50.425781 L 79.072266 50.425781 z M 57.03125 63.021484 L 57.03125 65.021484 L 73.560547 65.021484 L 73.560547 63.021484 L 57.03125 63.021484 z M 79.072266 75.615234 L 79.072266 77.615234 L 84.582031 77.615234 L 84.582031 75.615234 L 79.072266 75.615234 z M 46.011719 88.208984 L 46.011719 90.208984 L 79.072266 90.208984 L 79.072266 88.208984 L 46.011719 88.208984 z " /><path
       id="rect26"
       style="fill:#1a1a1a;fill-opacity:1;stroke-width:0.959575"
       d="M 25.623047 9.6230469 C 18.975047 9.6230469 13.623047 14.975047 13.623047 21.623047 L 13.623047 25.623047 C 13.623047 18.975047 18.975047 13.623047 25.623047 13.623047 L 102.37695 13.623047 C 109.02495 13.623047 114.37695 18.975047 114.37695 25.623047 L 114.37695 21.623047 C 114.37695 14.975047 109.02495 9.6230469 102.37695 9.6230469 L 25.623047 9.6230469 z " /></g></svg>

<svg xmlns="http://www.w3.org/2000/svg" xmlns:xlink="http://www.w3.org/1999/xlink" xml:space="preserve" width="128" height="128" viewBox="0 0 128 128">
    <defs>
        <linearGradient id="c">
            <stop offset="0" style="stop-color:#000;stop-opacity:.0977908"/>
            <stop offset=".5" style="stop-color:#000;stop-opacity:.30354801"/>
            <stop offset="1" style="stop-color:#000;stop-opacity:.09632333"/>
        </linearGradient>
        <linearGradient id="d">
            <stop offset="0" style="stop-color:#696969;stop-opacity:1"/>
            <stop offset="1" style="stop-color:#2a2a2a;stop-opacity:1"/>
        </linearGradient>
        <linearGradient id="b">
            <stop offset="0" style="stop-color:#e6e6e6;stop-opacity:1"/>
            <stop offset="1" style="stop-color:#fff;stop-opacity:1"/>
        </linearGradient>
        <linearGradient id="a">
            <stop offset="0" style="stop-color:#999;stop-opacity:1"/>
            <stop offset=".05" style="stop-color:#b3b3b3;stop-opacity:1"/>
            <stop offset=".1" style="stop-color:#999;stop-opacity:1"/>
            <stop offset=".9" style="stop-color:#999;stop-opacity:1"/>
            <stop offset=".95" style="stop-color:#b3b3b3;stop-opacity:1"/>
            <stop offset="1" style="stop-color:#999;stop-opacity:1"/>
        </linearGradient>
        <linearGradient xlink:href="#a" id="e" x1="11.5" x2="116.5" y1="120.5" y2="120.5" gradientUnits="userSpaceOnUse"/>
        <linearGradient xlink:href="#b" id="h" x1="64" x2="64" y1="112.5" y2="7.5" gradientUnits="userSpaceOnUse"/>
        <linearGradient xlink:href="#c" id="j" x1="-126.378" x2="-25.622" y1="41.108" y2="41.108" gradientTransform="translate(140)" gradientUnits="userSpaceOnUse"/>
        <radialGradient xlink:href="#d" id="i" cx="64" cy="60" r="50.378" fx="64" fy="60" gradientTransform="matrix(1.07909 0 0 1.49887 -5.062 -29.932)" gradientUnits="userSpaceOnUse"/>
    </defs>
    <rect width="105" height="105" x="11.5" y="15.5" rx="13" ry="13" style="fill:url(#e);fill-opacity:1"/>
    <rect width="105" height="105" x="11.5" y="7.5" rx="13" ry="13" style="fill:url(#h);fill-opacity:1"/>
    <rect width="100.755" height="100.755" x="13.622" y="9.622" rx="12" ry="12" style="fill:url(#i);fill-opacity:1;stroke-width:.959575"/>
    <path d="M25.623 9.623c-6.648 0-12 5.352-12 12v.594h100.754v-.594c0-6.648-5.352-12-12-12zm-12 25.188v12.595h100.754V34.811zm0 25.189v12.594h100.754V60zm0 25.19v12.593h100.754V85.19z" style="fill:url(#j);fill-opacity:1;stroke-width:2.06468"/>
    <path d="M49.798 34.811v62.972h33.06V85.19h5.51V72.594h-5.51V60h5.51V47.406h-5.51V34.81Zm11.02 12.595h16.53V60h-16.53Zm0 25.188h16.53V85.19h-16.53Z" style="fill:#252525;fill-opacity:1;stroke-width:.787152"/>
    <path fill="none" d="M13.622 22.217h100.755v12.594H13.622zm0 25.189h100.755V60H13.622zm0 25.188h100.755v12.594H13.622zm.001 25.189v.594c0 6.648 5.352 12 12 12h76.754c6.648 0 12-5.352 12-12v-.594z" style="fill:#f52b2b;fill-opacity:0;stroke-width:2.06468"/>
    <path d="M46.011 27.237V90.21h33.06V77.615h5.51V65.021h-5.51V52.426h5.51V39.832h-5.51V27.237Zm11.02 12.595h16.53v12.594h-16.53Zm0 25.189h16.53v12.594h-16.53Z" style="fill:#e96262;fill-opacity:1;stroke-width:.787152"/>
    <path d="M46.012 27.238v2h33.06v-2zm33.06 12.594v2h5.51v-2zm-22.04 12.594v2H73.56v-2zm22.04 12.595v2h5.51v-2zm-22.04 12.594v2H73.56v-2z" style="fill:#fcbcbc;fill-opacity:1;stroke-width:.787152"/>
    <path d="M57.031 37.832v2h16.53v-2zm22.041 12.594v2h5.51v-2zM57.032 63.02v2H73.56v-2zm22.04 12.594v2h5.51v-2zM46.012 88.21v2h33.06v-2z" style="fill:#952121;fill-opacity:1;stroke-width:.787152"/>
    <path d="M25.623 9.623c-6.648 0-12 5.352-12 12v4c0-6.648 5.352-12 12-12h76.754c6.648 0 12 5.352 12 12v-4c0-6.648-5.352-12-12-12z" style="fill:#1a1a1a;fill-opacity:1;stroke-width:.959575"/>
</svg>
